!!!COM: Corelli, Arcangelo
!!!OPR: Church Sonata in F Major
!!!ONM: Opus 1, No. 1
!!!OTL:
!!!OMV: 4
!!!YOR: Chrysander Edition
!!!EED: Steven Rasmussen
!!!ENC: Steven Rasmussen
!!!CDT: 1653/2/17/-1713/1/8/
!!!OCY: Italia
!!!YEC: Copyright (c) 1994, 2000 Center for Computer Assisted Research in the Humanities
!!!YEM: Rights to all derivative editions reserved.
!!!YEM: Refer to licensing agreement for further details.
!!!YEN: United States of America
**kern	**dynam	**kern	**dynam	**kern	**dynam	**kern	**dynam
*I:Violino 1	*I:Violino 1	*I:Violino 2	*I:Violino 2	*I:Violone	*I:Violone	*I:Organo	*I:Organo
*clefG2	*	*clefG2	*	*clefF4	*	*clefF4	*
*k[b-]	*	*k[b-]	*	*k[b-]	*	*k[b-]	*
*F:	*	*F:	*	*F:	*	*F:	*
*M3/4	*	*M3/4	*	*M3/4	*	*M3/4	*
! Allegro.	!	! Allegro.	!	! Allegro.	!	! Allegro.	!
*tb8	*	*tb8	*	*tb8	*	*tb8	*
=1-	=1-	=1-	=1-	=1-	=1-	=1-	=1-
8ff\L	.	2.r	.	2.r	.	2.F\	.
8ee\	.	.	.	.	.	.	.
8ff\	.	.	.	.	.	.	.
8gg\J	.	.	.	.	.	.	.
4aa\	.	.	.	.	.	.	.
=2	=2	=2	=2	=2	=2	=2	=2
!	!	!	!	!	!	! **Bnum:._6	!
8bb-\L	.	2.r	.	2.r	.	2.D\	.
8aa\	.	.	.	.	.	.	.
8bb-\	.	.	.	.	.	.	.
8ccc\J	.	.	.	.	.	.	.
4ddd\	.	.	.	.	.	.	.
=3	=3	=3	=3	=3	=3	=3	=3
!	!	!	!	!	!	! **Bnum:2_6	!
!	!	!	!	!	!	! **Bnum:._5	!
2ccc\	.	2.r	.	2.r	.	2.E\	.
4bb-\	.	.	.	.	.	.	.
=4	=4	=4	=4	=4	=4	=4	=4
8aa\L	.	2.r	.	2.r	.	2.F\	.
8bb-\	.	.	.	.	.	.	.
8aa\	.	.	.	.	.	.	.
8gg\J	.	.	.	.	.	.	.
4ff\	.	.	.	.	.	.	.
=5	=5	=5	=5	=5	=5	=5	=5
2.ee\	.	8cc\L	.	2.r	.	2.C/	.
.	.	8bn\	.	.	.	.	.
.	.	8cc\	.	.	.	.	.
.	.	8dd\J	.	.	.	.	.
.	.	4ee\	.	.	.	.	.
=6	=6	=6	=6	=6	=6	=6	=6
2.a/	.	8ff\L	.	2.r	.	2.D\	.
.	.	8ee\	.	.	.	.	.
.	.	8ff\	.	.	.	.	.
.	.	8gg\J	.	.	.	.	.
.	.	4aa\	.	.	.	.	.
=7	=7	=7	=7	=7	=7	=7	=7
!	!	!	!	!	!	! **Bnum:._n	!
2.bn\	.	2gg\	.	2.r	.	2.GG/	.
.	.	4ff\	.	.	.	.	.
=8	=8	=8	=8	=8	=8	=8	=8
2.cc\	.	8ee\L	.	2.r	.	2.C/	.
.	.	8ff\	.	.	.	.	.
.	.	8ee\	.	.	.	.	.
.	.	8dd\J	.	.	.	.	.
.	.	4cc\	.	.	.	.	.
=9	=9	=9	=9	=9	=9	=9	=9
4.a/	.	2ccc\	.	8F\L	.	8F\L	.
.	.	.	.	8E\	.	8E\	.
.	.	.	.	8F\	.	8F\	.
8b-\	.	.	.	8G\J	.	8G\J	.
!	!	!	!	!	!	! **Bnum:._6	!
4cc\	.	4ccc\	.	4A\	.	4A\	.
=10	=10	=10	=10	=10	=10	=10	=10
!	!	!	!	!	!	! **Bnum:._5	!
4.dd\	.	2ff\	.	8B-\L	.	8B-\L	.
.	.	.	.	8A\	.	8A\	.
.	.	.	.	8B-\	.	8B-\	.
8ee\	.	.	.	8c\J	.	8c\J	.
!	!	!	!	!	!	! **Bnum:._6	!
[4ff\	.	4bb-\	.	4d\	.	4d\	.
=11	=11	=11	=11	=11	=11	=11	=11
!	!	!	!	!	!	! **Bnum:4_6 4	!
!	!	!	!	!	!	! **Bnum:._5 3	!
4ff\]	.	4aa\	.	2c\	.	2c\	.
2ee\	.	2gg\	.	.	.	.	.
!	!	!	!	!	!	! **Bnum:._6 4	!
.	.	.	.	4B-\	.	4B-\	.
=12	=12	=12	=12	=12	=12	=12	=12
!	!	!	!	!	!	! **Bnum:._6	!
2.ff\	.	2.ff\	.	8A\L	.	8A\L	.
.	.	.	.	8B-\	.	8B-\	.
.	.	.	.	8A\	.	8A\	.
.	.	.	.	8G\J	.	8G\J	.
.	.	.	.	4F\	.	4F\	.
=13	=13	=13	=13	=13	=13	=13	=13
8aa\L	.	8ff\L	.	2.F\	.	2.F\	.
8gg\	.	8ee\	.	.	.	.	.
8aa\	.	8ff\	.	.	.	.	.
8bb-\J	.	8gg\J	.	.	.	.	.
4aa\	.	4ff\	.	.	.	.	.
=14	=14	=14	=14	=14	=14	=14	=14
!	!	!	!	!	!	! **Bnum:._5	!
8gg\L	p	8ee\L	p	2.C#/	p	2.C#/	p
8ff\	.	8dd\	.	.	.	.	.
8gg\	.	8ee\	.	.	.	.	.
8aa\J	.	8ff\J	.	.	.	.	.
4gg\	.	4ee\	.	.	.	.	.
=15	=15	=15	=15	=15	=15	=15	=15
8ff\L	f	8dd\L	f	2.D\	f	2.D\	f
8ee\	.	8cc#\	.	.	.	.	.
8ff\	.	8dd\	.	.	.	.	.
8gg\J	.	8ee\J	.	.	.	.	.
4ff\	.	4dd\	.	.	.	.	.
=16	=16	=16	=16	=16	=16	=16	=16
!	!	!	!	!	!	! **Bnum:._#	!
2ee\	.	2cc#\	.	2.A\	.	2.A\	.
4a/	.	4cc#\	.	.	.	.	.
=17	=17	=17	=17	=17	=17	=17	=17
!	!	!	!	!	!	! **Bnum:._6	!
2aa\	.	4.a/	.	4.F\	.	4.F\	.
!	!	!	!	!	!	! **Bnum:._n	!
.	.	8bn\	.	8G\	.	8G\	.
!	!	!	!	!	!	! **Bnum:._7 #	!
4gg\	.	4cc#\	.	4A\	.	4A\	.
=18	=18	=18	=18	=18	=18	=18	=18
!	!	!	!	!	!	! **Bnum:._5	!
(8ff\L	.	(8dd\L	.	4B-\	.	4B-\	.
8gg\)	.	8ee\)	.	.	.	.	.
!	!	!	!	!	!	! **Bnum:._6	!
(8aa\	.	(8ff\	.	4F\	.	4F\	.
8gg\J)	.	8ee\J)	.	.	.	.	.
!	!	!	!	!	!	! **Bnum:._7 5	!
4ff\	.	4dd\	.	4G\	.	4G\	.
=19	=19	=19	=19	=19	=19	=19	=19
!	!	!	!	!	!	! **Bnum:._#	!
2ee\	.	2cc#\	.	2A\	.	2A\	.
4dd\	.	4dd\	.	4D\	.	4D\	.
=20	=20	=20	=20	=20	=20	=20	=20
(8bb-\L	.	2.r	.	2.r	.	2.r	.
8aa\	.	.	.	.	.	.	.
8gg\	.	.	.	.	.	.	.
8aa\J)	.	.	.	.	.	.	.
4bb-\	.	.	.	.	.	.	.
=21	=21	=21	=21	=21	=21	=21	=21
!	!	!	!	!	!	! **Bnum:2_7	!
!	!	!	!	!	!	! **Bnum:._6	!
(2bb-\	.	2.ee\	.	2.C/	.	2.C/	.
4aa\)	.	.	.	.	.	.	.
=22	=22	=22	=22	=22	=22	=22	=22
(8aa\L	.	2.r	.	2.r	.	2.r	.
8gg\	.	.	.	.	.	.	.
8ff\	.	.	.	.	.	.	.
8gg\J)	.	.	.	.	.	.	.
4aa\	.	.	.	.	.	.	.
=23	=23	=23	=23	=23	=23	=23	=23
!	!	!	!	!	!	! **Bnum:2_7	!
!	!	!	!	!	!	! **Bnum:._6	!
(2aat\	.	2.dd\	.	2.BB-/	.	2.BB-/	.
4gg\)	.	.	.	.	.	.	.
=24	=24	=24	=24	=24	=24	=24	=24
(8gg\L	.	2.r	.	2.r	.	2.r	.
8ff\	.	.	.	.	.	.	.
8ee\	.	.	.	.	.	.	.
8ff\J)	.	.	.	.	.	.	.
4gg\	.	.	.	.	.	.	.
=25	=25	=25	=25	=25	=25	=25	=25
2gg\	.	2.ee\	.	2.C/	.	2.C/	.
4cc\	.	.	.	.	.	.	.
=26	=26	=26	=26	=26	=26	=26	=26
!	!	!	!	!	!	! **Bnum:._6	!
2ccc\	.	4.cc\	.	4.AA/	.	4.AA/	.
.	.	8dd\	.	8BB-/	.	8BB-/	.
!	!	!	!	!	!	! **Bnum:._7	!
4bb-\	.	4ee\	.	4C/	.	4C/	.
=27	=27	=27	=27	=27	=27	=27	=27
!	!	!	!	!	!	! **Bnum:._5	!
8aa\L	.	8ff\L	.	4.D\	.	4.D\	.
8gg\	.	8ee\	.	.	.	.	.
8aa\	.	8dd\	.	.	.	.	.
8bb-\J	.	8ee\J	.	8C/	.	8C/	.
!	!	!	!	!	!	! **Bnum:._7 5	!
4aa\	.	4ff\	.	4BB-/	.	4BB-/	.
=28	=28	=28	=28	=28	=28	=28	=28
2gg\	.	2ee\	.	2C/	.	2C/	.
4ff\	.	4ff\	.	4FF/	.	4FF/	.
=29	=29	=29	=29	=29	=29	=29	=29
2.r	.	2.r	.	8F\L	.	8F\L	.
.	.	.	.	8E\	.	8E\	.
.	.	.	.	8F\	.	8F\	.
.	.	.	.	8G\J	.	8G\J	.
.	.	.	.	4A\	.	4A\	.
=30	=30	=30	=30	=30	=30	=30	=30
2.r	.	8cc\L	.	2F\	.	2F\	.
.	.	8bn\	.	.	.	.	.
.	.	8cc\	.	.	.	.	.
.	.	8dd\J	.	.	.	.	.
.	.	4ee\	.	4C/	.	4C/	.
=31	=31	=31	=31	=31	=31	=31	=31
8ff\L	.	8a/L	.	2F\	.	2F\	.
8ee\	.	8g/	.	.	.	.	.
8ff\	.	8a/	.	.	.	.	.
8gg\J	.	8bn/J	.	.	.	.	.
4aa\	.	4cc\	.	4FF/	.	4FF/	.
=32	=32	=32	=32	=32	=32	=32	=32
8aa\L	.	8cc\L	.	2F\	.	2F\	.
8gg\	.	8bn\	.	.	.	.	.
8aa\	.	8cc\	.	.	.	.	.
8bbn\J	.	8dd\J	.	.	.	.	.
4ccc\	.	4ee\	.	4C/	.	4C/	.
=33	=33	=33	=33	=33	=33	=33	=33
!	!	!	!	!	!	! **Bnum:._n	!
2bbn\	.	4dd\	.	2G\	.	2G\	.
.	.	4g/	.	.	.	.	.
!	!	!	!	!	!	! **Bnum:._6	!
4gg\	.	4g/	.	4E\	.	4E\	.
=34	=34	=34	=34	=34	=34	=34	=34
8ff\L	.	2a/	.	2F\	.	2F\	.
8ee\	.	.	.	.	.	.	.
8ff\	.	.	.	.	.	.	.
8gg\J	.	.	.	.	.	.	.
!	!	!	!	!	!	! **Bnum:._7 5 n	!
4ff\	.	4bn\	.	4G\	.	4G\	.
=35	=35	=35	=35	=35	=35	=35	=35
!	!	!	!	!	!	! **Bnum:._5	!
8ee\L	.	8cc\L	.	4A\	.	4A\	.
8dd\	.	8bn\	.	.	.	.	.
!	!	!	!	!	!	! **Bnum:._6	!
8ee\	.	8cc\	.	4E\	.	4E\	.
8ff\J	.	8dd\J	.	.	.	.	.
!	!	!	!	!	!	! **Bnum:._7 5	!
4ee\	.	4cc\	.	4F\	.	4F\	.
=36	=36	=36	=36	=36	=36	=36	=36
!	!	!	!	!	!	! **Bnum:._n	!
2dd\	.	2bn\	.	2G\	.	2G\	.
4cc\	.	4cc\	.	4C/	.	4C/	.
*	*	*	*	*	*	*clefG2	*
=37	=37	=37	=37	=37	=37	=37	=37
8cc\L	.	2.r	.	2.r	.	8cc\L	.
8bn\	.	.	.	.	.	8bn\	.
8cc\	.	.	.	.	.	8cc\	.
8dd\J	.	.	.	.	.	8dd\J	.
4ee\	.	.	.	.	.	4ee\	.
=38	=38	=38	=38	=38	=38	=38	=38
8ff\L	.	2.r	.	2.r	.	8ff\L	.
8ee\	.	.	.	.	.	8ee\	.
8ff\	.	.	.	.	.	8ff\	.
8gg\J	.	.	.	.	.	8gg\J	.
4aa\	.	.	.	.	.	4aa\	.
=39	=39	=39	=39	=39	=39	=39	=39
8a/L	.	8ff\L	.	2.r	.	8f/L	.
8g/	.	8ee\	.	.	.	8e/	.
8a/	.	8ff\	.	.	.	8f/	.
8b-/J	.	8gg\J	.	.	.	8g/J	.
4cc\	.	4aa\	.	.	.	4a/	.
=40	=40	=40	=40	=40	=40	=40	=40
8cc\L	.	8aa\L	.	2.r	.	8a/L	.
8bn\	.	8gg\	.	.	.	8g/	.
8cc\	.	8aa\	.	.	.	8a/	.
8dd\J	.	8bbn\J	.	.	.	8bn/J	.
4ee\	.	4ccc\	.	.	.	4cc\	.
*	*	*	*	*	*	*clefF4	*
=41	=41	=41	=41	=41	=41	=41	=41
2.r	.	2.r	.	8C/L	.	8C/L	.
.	.	.	.	8BBn/	.	8BBn/	.
.	.	.	.	8C/	.	8C/	.
.	.	.	.	8D/J	.	8D/J	.
.	.	.	.	4E\	.	4E\	.
=42	=42	=42	=42	=42	=42	=42	=42
2.r	.	2.r	.	8F\L	.	8F\L	.
.	.	.	.	8E\	.	8E\	.
.	.	.	.	8F\	.	8F\	.
.	.	.	.	8G\J	.	8G\J	.
.	.	.	.	4A\	.	4A\	.
=43	=43	=43	=43	=43	=43	=43	=43
8ee\L	.	8cc\L	.	2c\	.	2c\	.
8dd\	.	8bn\	.	.	.	.	.
8ee\	.	8cc\	.	.	.	.	.
8ff\J	.	8dd\J	.	.	.	.	.
!	!	!	!	!	!	! **Bnum:._6 4	!
4gg\	.	4ee\	.	4B-\	.	4B-\	.
=44	=44	=44	=44	=44	=44	=44	=44
!	!	!	!	!	!	! **Bnum:._6	!
8aa\L	.	8ff\L	.	4.A\	.	4.A\	.
8gg\	.	8ee\	.	.	.	.	.
8aa\	.	8ff\	.	.	.	.	.
8bb-\J	.	8gg\J	.	8G\	.	8G\	.
4ccc\	.	4aa\	.	4F\	.	4F\	.
=45	=45	=45	=45	=45	=45	=45	=45
2gg\	.	2ee\	.	2c\	.	2c\	.
4ff\	.	4ff\	.	4F\	.	4F\	.
=46	=46	=46	=46	=46	=46	=46	=46
8f/L	.	2.r	.	2.F\	.	2.F\	.
8e/	.	.	.	.	.	.	.
8f/	.	.	.	.	.	.	.
8g/J	.	.	.	.	.	.	.
4a/	.	.	.	.	.	.	.
=47	=47	=47	=47	=47	=47	=47	=47
!	!	!	!	!	!	! **Bnum:._6	!
8b-\L	.	2.r	.	2.D\	.	2.D\	.
8a\	.	.	.	.	.	.	.
8b-\	.	.	.	.	.	.	.
8cc\J	.	.	.	.	.	.	.
4dd\	.	.	.	.	.	.	.
=48	=48	=48	=48	=48	=48	=48	=48
!	!	!	!	!	!	! **Bnum:2_6	!
!	!	!	!	!	!	! **Bnum:._5	!
2cc\	.	2.r	.	2.E\	.	2.E\	.
4b-\	.	.	.	.	.	.	.
=49	=49	=49	=49	=49	=49	=49	=49
8a/L	.	2.r	.	2.F\	.	2.F\	.
8b-/	.	.	.	.	.	.	.
8a/	.	.	.	.	.	.	.
8g/J	.	.	.	.	.	.	.
4f/	.	.	.	.	.	.	.
=50	=50	=50	=50	=50	=50	=50	=50
2e/	.	8cc\L	.	2.C/	.	2.C/	.
.	.	8bn\	.	.	.	.	.
.	.	8cc\	.	.	.	.	.
.	.	8dd\J	.	.	.	.	.
4cc\	.	4ee\	.	.	.	.	.
=51	=51	=51	=51	=51	=51	=51	=51
2.a/	.	8ff\L	.	2.D\	.	2.D\	.
.	.	8ee\	.	.	.	.	.
.	.	8ff\	.	.	.	.	.
.	.	8gg\J	.	.	.	.	.
.	.	4aa\	.	.	.	.	.
=52	=52	=52	=52	=52	=52	=52	=52
!	!	!	!	!	!	! **Bnum:._n	!
2.bn\	.	2gg\	.	2.GG/	.	2.GG/	.
.	.	4ff\	.	.	.	.	.
=53	=53	=53	=53	=53	=53	=53	=53
2.cc\	.	8ee\L	.	2.C/	.	2.C/	.
.	.	8ff\	.	.	.	.	.
.	.	8ee\	.	.	.	.	.
.	.	8dd\J	.	.	.	.	.
.	.	4cc\	.	.	.	.	.
=54	=54	=54	=54	=54	=54	=54	=54
2ccc\	.	4.a/	.	8F\L	.	8F\L	.
.	.	.	.	8E\	.	8E\	.
.	.	.	.	8F\	.	8F\	.
.	.	8b-\	.	8G\J	.	8G\J	.
!	!	!	!	!	!	! **Bnum:._6	!
4ccc\	.	4cc\	.	4A\	.	4A\	.
=55	=55	=55	=55	=55	=55	=55	=55
!	!	!	!	!	!	! **Bnum:._5	!
2ff\	.	4.dd\	.	8B-\L	.	8B-\L	.
.	.	.	.	8A\	.	8A\	.
.	.	.	.	8B-\	.	8B-\	.
.	.	8ee\	.	8c\J	.	8c\J	.
!	!	!	!	!	!	! **Bnum:._6	!
4bb-\	.	4ff\	.	4d\	.	4d\	.
=56	=56	=56	=56	=56	=56	=56	=56
!	!	!	!	!	!	! **Bnum:4_6 4	!
!	!	!	!	!	!	! **Bnum:._5 3	!
4aa\	.	4ff\	.	2c\	.	2c\	.
2gg\	.	2ee\	.	.	.	.	.
!	!	!	!	!	!	! **Bnum:._6 4	!
.	.	.	.	4B-\	.	4B-\	.
=57	=57	=57	=57	=57	=57	=57	=57
!	!	!	!	!	!	! **Bnum:._6	!
2.ff\	.	2.ff\	.	8A\L	.	8A\L	.
.	.	.	.	8B-\	.	8B-\	.
.	.	.	.	8A\	.	8A\	.
.	.	.	.	8G\J	.	8G\J	.
.	.	.	.	4F\	.	4F\	.
=58	=58	=58	=58	=58	=58	=58	=58
8ff\L	.	8aa\L	.	2.r	.	2.r	.
8gg\	.	8bb-\	.	.	.	.	.
8ff\	.	8aa\	.	.	.	.	.
8ee\J	.	8gg\J	.	.	.	.	.
4dd\	.	4ff\	.	.	.	.	.
=59	=59	=59	=59	=59	=59	=59	=59
2.r	.	2.r	.	8B-\L	.	8B-\L	.
.	.	.	.	8c\	.	8c\	.
.	.	.	.	8B-\	.	8B-\	.
.	.	.	.	8A\J	.	8A\J	.
.	.	.	.	4G\	.	4G\	.
=60	=60	=60	=60	=60	=60	=60	=60
8gg\L	.	8bb-\L	.	2.r	.	2.r	.
8aa\	.	8ccc\	.	.	.	.	.
8gg\	.	8bb-\	.	.	.	.	.
8ff\J	.	8aa\J	.	.	.	.	.
4ee\	.	4gg\	.	.	.	.	.
=61	=61	=61	=61	=61	=61	=61	=61
2.r	.	2.r	.	8c\L	.	8c\L	.
.	.	.	.	8d\	.	8d\	.
.	.	.	.	8c\	.	8c\	.
.	.	.	.	8B-\J	.	8B-\J	.
.	.	.	.	4A\	.	4A\	.
=62	=62	=62	=62	=62	=62	=62	=62
8aa\L	.	8ccc\L	.	2.r	.	2.r	.
8bb-\	.	8ddd\	.	.	.	.	.
8aa\	.	8ccc\	.	.	.	.	.
8gg\J	.	8bb-\J	.	.	.	.	.
4ff\	.	4aa\	.	.	.	.	.
=63	=63	=63	=63	=63	=63	=63	=63
2.r	.	2.r	.	8d\L	.	8d\L	.
.	.	.	.	8e\	.	8e\	.
.	.	.	.	8d\	.	8d\	.
.	.	.	.	8c\J	.	8c\J	.
.	.	.	.	4B-\	.	4B-\	.
=64	=64	=64	=64	=64	=64	=64	=64
!	!	!	!	!	!	! **Bnum:._6	!
8gg\L	.	8ee\L	.	2G\	.	2G\	.
8aa\	.	8ff\	.	.	.	.	.
8gg\	.	8ee\	.	.	.	.	.
8ff\J	.	8dd\J	.	.	.	.	.
!	!	!	!	!	!	! **Bnum:._#	!
4ee\	.	4cc#\	.	4A\	.	4A\	.
=65	=65	=65	=65	=65	=65	=65	=65
2.r	.	(8aa\L	.	2.r	.	2.r	.
.	.	8gg\	.	.	.	.	.
.	.	8ff\	.	.	.	.	.
.	.	8gg\J)	.	.	.	.	.
.	.	4aa\	.	.	.	.	.
=66	=66	=66	=66	=66	=66	=66	=66
!	!	!	!	!	!	! **Bnum:2_7	!
!	!	!	!	!	!	! **Bnum:._6	!
2.dd\	.	2aat\	.	2.B-\	.	2.B-\	.
.	.	4gg\	.	.	.	.	.
=67	=67	=67	=67	=67	=67	=67	=67
2.r	.	(8gg\L	.	2.r	.	2.r	.
.	.	8ff\	.	.	.	.	.
.	.	8ee\	.	.	.	.	.
.	.	8ff\J)	.	.	.	.	.
.	.	4gg\	.	.	.	.	.
=68	=68	=68	=68	=68	=68	=68	=68
!	!	!	!	!	!	! **Bnum:2_7	!
!	!	!	!	!	!	! **Bnum:._6	!
2.cc\	.	2ggT\	.	2.A\	.	2.A\	.
.	.	4ff\	.	.	.	.	.
=69	=69	=69	=69	=69	=69	=69	=69
4.a/	.	(8aa\L	.	2.F\	.	2.F\	.
.	.	8gg\	.	.	.	.	.
.	.	8ff\	.	.	.	.	.
8bn\	.	8gg\J)	.	.	.	.	.
4cc\	.	4aa\	.	.	.	.	.
=70	=70	=70	=70	=70	=70	=70	=70
!	!	!	!	!	!	! **Bnum:._n	!
4bn\	.	2ggT\	.	4G\	.	4G\	.
!	!	!	!	!	!	! **Bnum:._6+	!
4cc#\	.	.	.	4E\	.	4E\	.
4dd\	.	4ff\	.	4D\	.	4D\	.
=71	=71	=71	=71	=71	=71	=71	=71
!	!	!	!	!	!	! **Bnum:._#	!
8cc#\L	.	(8ee\L	.	2A\	.	2A\	.
8bn\	.	8dd\	.	.	.	.	.
8cc#\	.	8ee\	.	.	.	.	.
8dd\J	.	8ff\J)	.	.	.	.	.
4cc#\	.	4ee\	.	4AA/	.	4AA/	.
=72	=72	=72	=72	=72	=72	=72	=72
2.dd\	.	2.dd\	.	2.D\	.	2.D\	.
=73	=73	=73	=73	=73	=73	=73	=73
! Adagio	!	! Adagio	!	! Adagio	!	! Adagio	!
(8ddd\L	.	2.r	.	2.r	.	2.r	.
8ccc\	.	.	.	.	.	.	.
8bb-\	.	.	.	.	.	.	.
8ccc\J	.	.	.	.	.	.	.
4ddd\)	.	.	.	.	.	.	.
=74	=74	=74	=74	=74	=74	=74	=74
!	!	!	!	!	!	! **Bnum:2_7	!
!	!	!	!	!	!	! **Bnum:._6	!
(2ddd\	.	2.gg\	.	2.E\	.	2.E\	.
4ccc\)	.	.	.	.	.	.	.
=75	=75	=75	=75	=75	=75	=75	=75
(8ccc\L	.	2.r	.	2.r	.	2.r	.
8bb-\	.	.	.	.	.	.	.
8aa\	.	.	.	.	.	.	.
8bb-\J	.	.	.	.	.	.	.
4ccc\)	.	.	.	.	.	.	.
=76	=76	=76	=76	=76	=76	=76	=76
!	!	!	!	!	!	! **Bnum:2_7	!
!	!	!	!	!	!	! **Bnum:._6	!
(2cccT\	.	2.ff\	.	2.D\	.	2.D\	.
4bb-\)	.	.	.	.	.	.	.
=77	=77	=77	=77	=77	=77	=77	=77
(8bb-\L	.	2.r	.	2.r	.	2.r	.
8aa\	.	.	.	.	.	.	.
8gg\	.	.	.	.	.	.	.
8aa\J	.	.	.	.	.	.	.
4bb-\)	.	.	.	.	.	.	.
=78	=78	=78	=78	=78	=78	=78	=78
!	!	!	!	!	!	! **Bnum:2_7	!
!	!	!	!	!	!	! **Bnum:._6	!
(2bb-T\	.	2.ee\	.	2.C/	.	2.C/	.
4aa\)	.	.	.	.	.	.	.
=79	=79	=79	=79	=79	=79	=79	=79
(8aa\L	.	2.r	.	2.r	.	2.r	.
8gg\	.	.	.	.	.	.	.
8ff\	.	.	.	.	.	.	.
8gg\J)	.	.	.	.	.	.	.
4aa-\	.	.	.	.	.	.	.
=80	=80	=80	=80	=80	=80	=80	=80
!	!	!	!	!	!	! **Bnum:2_7f	!
!	!	!	!	!	!	! **Bnum:._6	!
(2aa-\	.	2.dd\	.	2.BB-/	.	2.BB-/	.
4gg\)	.	.	.	.	.	.	.
=81	=81	=81	=81	=81	=81	=81	=81
2ggT\	.	2.r	.	2.r	.	2.r	.
4ff\	.	.	.	.	.	.	.
=82	=82	=82	=82	=82	=82	=82	=82
!	!	!	!	!	!	! **Bnum:._5 n	!
2.ee\	.	2.cc\	.	2.C/	.	2.C/	.
=83	=83	=83	=83	=83	=83	=83	=83
!	!	!	!	!	!	! **Bnum:._5 f	!
(8ee-\L	.	2.g/	.	2.C/	.	2.C/	.
8dd\	.	.	.	.	.	.	.
8cc\	.	.	.	.	.	.	.
8dd\J	.	.	.	.	.	.	.
4ee-\)	.	.	.	.	.	.	.
=84	=84	=84	=84	=84	=84	=84	=84
!	!	!	!	!	!	! **Bnum:2_7f f	!
!	!	!	!	!	!	! **Bnum:._6	!
(2ee-\	.	2.a-/	.	2.F\	.	2.F\	.
4dd\)	.	.	.	.	.	.	.
=85	=85	=85	=85	=85	=85	=85	=85
!	!	!	!	!	!	! **Bnum:._5 f	!
(8dd-\L	.	2.f/	.	2.B-\	.	2.B-\	.
8cc\	.	.	.	.	.	.	.
8b-\	.	.	.	.	.	.	.
8cc\J	.	.	.	.	.	.	.
4dd-\)	.	.	.	.	.	.	.
=86	=86	=86	=86	=86	=86	=86	=86
!	!	!	!	!	!	! **Bnum:2_7f	!
!	!	!	!	!	!	! **Bnum:._6	!
(2dd-T\	.	2.g/	.	2.E-\	.	2.E-\	.
4cc\)	.	.	.	.	.	.	.
=87	=87	=87	=87	=87	=87	=87	=87
! Allegro	!	! Allegro	!	! Allegro	!	! Allegro	!
!	!	!	!	!	!	! **Bnum:._6	!
8ee\L	.	8cc\L	.	4.E\	.	4.E\	.
8dd\	.	8bn\	.	.	.	.	.
8ee\	.	8cc\	.	.	.	.	.
8ff\J	.	8dd\J	.	8D\	.	8D\	.
4gg\	.	4ee\	.	4C/	.	4C/	.
=88	=88	=88	=88	=88	=88	=88	=88
8aa\L	.	8ff\L	.	2F\	.	2F\	.
8gg\	.	8ee\	.	.	.	.	.
8aa\	.	8ff\	.	.	.	.	.
8bb-\J	.	8gg\J	.	.	.	.	.
!	!	!	!	!	!	! **Bnum:._6	!
4ccc\	.	4aa\	.	4AA/	.	4AA/	.
=89	=89	=89	=89	=89	=89	=89	=89
8gg\L	.	8ee\L	.	2C/	.	2C/	.
8ff\	.	8dd\	.	.	.	.	.
8gg\	.	8ee\	.	.	.	.	.
8aa\J	.	8ff\J	.	.	.	.	.
4gg\	.	4ee\	.	4CC/	.	4CC/	.
=90	=90	=90	=90	=90	=90	=90	=90
2.ff\	.	2.ff\	.	2.FF/	.	2.FF/	.
=91	=91	=91	=91	=91	=91	=91	=91
2ccc\	.	4.a/	.	8F\L	.	8F\L	.
.	.	.	.	8E\	.	8E\	.
.	.	.	.	8F\	.	8F\	.
.	.	8b-\	.	8G\J	.	8G\J	.
!	!	!	!	!	!	! **Bnum:._6	!
4ccc\	.	4cc\	.	4A\	.	4A\	.
=92	=92	=92	=92	=92	=92	=92	=92
!	!	!	!	!	!	! **Bnum:._5	!
2ff\	.	4.dd\	.	8B-\L	.	8B-\L	.
.	.	.	.	8A\	.	8A\	.
.	.	.	.	8B-\	.	8B-\	.
.	.	8ee\	.	8c\J	.	8c\J	.
!	!	!	!	!	!	! **Bnum:._6	!
4bb-\	.	4ff\	.	4d\	.	4d\	.
=93	=93	=93	=93	=93	=93	=93	=93
!	!	!	!	!	!	! **Bnum:4_6 4	!
!	!	!	!	!	!	! **Bnum:._5 3	!
4aa\	.	4ff\	.	2c\	.	2c\	.
2gg\	.	2ee\	.	.	.	.	.
.	.	.	.	4C/	.	4C/	.
=94	=94	=94	=94	=94	=94	=94	=94
2.ff\	.	2.ff\	.	2.FF/	.	2.FF/	.
=95	=95	=95	=95	=95	=95	=95	=95
2ccc\	p	4.a/	p	8F\L	p	8F\L	p
.	.	.	.	8E\	.	8E\	.
.	.	.	.	8F\	.	8F\	.
.	.	8b-\	.	8G\J	.	8G\J	.
!	!	!	!	!	!	! **Bnum:._6	!
4ccc\	.	4cc\	.	4A\	.	4A\	.
=96	=96	=96	=96	=96	=96	=96	=96
!	!	!	!	!	!	! **Bnum:._5	!
2ff\	.	4.dd\	.	8B-\L	.	8B-\L	.
.	.	.	.	8A\	.	8A\	.
.	.	.	.	8B-\	.	8B-\	.
.	.	8ee\	.	8c\J	.	8c\J	.
!	!	!	!	!	!	! **Bnum:._6	!
4bb-\	.	4ff\	.	4d\	.	4d\	.
=97	=97	=97	=97	=97	=97	=97	=97
!	!	!	!	!	!	! **Bnum:4_6 4	!
!	!	!	!	!	!	! **Bnum:._5 3	!
4aa\	.	4ff\	.	2c\	.	2c\	.
2gg\	.	2ee\	.	.	.	.	.
.	.	.	.	4C/	.	4C/	.
=98	=98	=98	=98	=98	=98	=98	=98
2.ff\	.	2.ff\	.	2.FF/	.	2.FF/	.
==|!	==|!	==|!	==|!	==|!	==|!	==|!	==|!
*-	*-	*-	*-	*-	*-	*-	*-
!!!RWG: Key is interpreted using the Humdrum key tool.
!!!GTL: Sonate a tre
!!!AFT: stage2
!!!END: 1993/08/16
!!format changes:
!!content changes:
!!public access: complete
!!!KEY: 602963861
!!!EMD: Converted from MuseData to Humdrum Dec 16, 2000, by Andreas Kornstaedt using muse2kern.
